X: 1
T: Shetland Swamps, The
M: 4/4
L: 1/8
R: reel
K: Amaj
|:&quot;A&quot;E2AB c3E|&quot;F#m&quot;F2EF &quot;A&quot;A3E|&quot;A&quot;E2Ac -c2ef|e2c=c &quot;E&quot;B2zE|
&quot;A&quot;E2AB c3E|&quot;F#m&quot;F2EF &quot;A&quot;A3E|EABc -c2ef|1&quot;A&quot;c2B2 A2zE:|2 &quot;A&quot;c2B2 A2zB|
|:&quot;A&quot;ee2A &quot;F#m&quot;ff2A|&quot;A&quot;eE[F2A2]-[F2A2]zA|&quot;A&quot;ee2A &quot;F#m&quot;ff2A|a2cB -&quot;Bm&quot;B2 cd|
&quot;A&quot;eAAA ABcA|&quot;F#m&quot;F2EF &quot;A&quot;A3E|&quot;E&quot;EABc &quot;A&quot;-c2ef|1c2B2 A3B:|2 c2B2 A3E|
